src/status/22/audio-volume-high-panel.svg

<svg xmlns="http://www.w3.org/2000/svg" width="22" height="22">
    <defs>
        <style id="current-color-scheme" type="text/css">
            .ColorScheme-Highlight{color:#a0b6cb}
        </style>
    </defs>
    <g fill="currentColor" style="color:#050505;opacity:.7" transform="translate(3 3)">
        <rect width="5" height="4" y="6" ry="1"/>
        <path d="M6 3 3 6v4l3 3zM13.139 1.428c-.545-.428-1.139.224-.684.732A8 8 0 0 1 15 8a8 8 0 0 1-2.554 5.852c-.446.471.18 1.148.677.728A9 9 0 0 0 16 8a9 9 0 0 0-2.861-6.572Z"/>
        <path d="M10.775 2.889c-.587-.535-1.199.225-.684.732A6 6 0 0 1 12 8a6 6 0 0 1-1.916 4.389c-.469.446.173 1.146.68.728A7 7 0 0 0 13 8a7 7 0 0 0-2.225-5.111z"/>
        <path d="M8.41 4.35c-.52-.494-1.155.22-.683.73A4 4 0 0 1 9 8a4 4 0 0 1-1.277 2.926c-.473.43.14 1.152.68.73A5 5 0 0 0 10 8a5 5 0 0 0-1.59-3.65Z"/>
    </g>
</svg>

<svg width="22" height="22" version="1.1" xmlns="http://www.w3.org/2000/svg">
 <defs>
  <style id="current-color-scheme" type="text/css">
   .ColorScheme-Text { color:#363636; } .ColorScheme-Highlight { color:#4285f4; }
  </style>
 </defs>
 <g transform="translate(3 2.9995)" class="ColorScheme-Text" fill="currentColor">
  <rect y="6" width="5" height="4" ry="1"/>
  <path d="m6 3-3 3v4l3 3z"/>
  <g>
   <path d="M 13.139,1.428 C 12.594,1 12,1.652 12.455,2.16 A 8,8 0 0 1 15,8 8,8 0 0 1 12.446,13.852 C 12,14.323 12.626,15 13.123,14.58 A 9,9 0 0 0 16,8 9,9 0 0 0 13.139,1.428 Z"/>
   <path d="m10.775 2.889c-0.587-0.535-1.199 0.225-0.684 0.732a6 6 0 0 1 1.909 4.379 6 6 0 0 1-1.916 4.389c-0.469 0.446 0.173 1.146 0.68 0.728a7 7 0 0 0 2.236-5.117 7 7 0 0 0-2.225-5.111z"/>
   <path d="M 8.41,4.35 C 7.89,3.856 7.255,4.57 7.727,5.08 A 4,4 0 0 1 9,8 4,4 0 0 1 7.723,10.926 c -0.473,0.43 0.14,1.152 0.68,0.73 A 5,5 0 0 0 10,8 5,5 0 0 0 8.41,4.35 Z"/>
  </g>
 </g>
</svg>
